X: 1
T: Pit Hame da Borrowed Claes
C: trad Shetland
R: reel
N: Learned from Ed Pearlman, 1985
Z: John Chambers <jc:trillian.mit.edu>
B: Tom Anderson "Ringing Strings" 1983
N: Tom Anderson's notes:
N: A lively traditional reel from Vidlin.  This was a favourite reel for
N: dancing at weddings.  Clothes were sometimes borrowed for weddings,
N: hence the title, Put Home the Borrowed Clothes".
M: C|
L: 1/8
K: G
B \
|: "G"DGBA BABd | edBd gedB | DGBA "Em"BABd | "C"edgB "D7"BAAB :|
| "G"dBgB dBAB | dBgB "D7"BAAB | "G"dBgB "Em"edB2 | "C"gfgB "D7"BAAB |
| "G"dBgB edBg | degd "D7"BAAB | "G"dBgB defg | "C"afgB "D7"BAA |]
